assets/icons/qvision/compress.svg

<svg xmlns="http://www.w3.org/2000/svg" height="24" viewBox="0 0 24 24" width="24"><path d="M0 0h24v24H0z" fill="none"/><path d="M0 0h24v24H0V0z" fill="none"/><path d="M8 19h3v3h2v-3h3l-4-4-4 4zm8-15h-3V1h-2v3H8l4 4 4-4zM4 9v2h16V9H4z"/><path d="M4 12h16v2H4z"/></svg>

<svg width="24" height="24" viewBox="0 0 24 24" fill="none" xmlns="http://www.w3.org/2000/svg">
<g clip-path="url(#clip0_147_4041)">
<path d="M8 19H11V22H13V19H16L12 15L8 19ZM16 4H13V1H11V4H8L12 8L16 4ZM4 9V11H20V9H4Z" fill="#323232"/>
<path d="M4 12H20V14H4V12Z" fill="#323232"/>
</g>
<defs>
<clipPath id="clip0_147_4041">
<rect width="24" height="24" fill="white"/>
</clipPath>
</defs>
</svg>
